packages/kaspersky-hexa-ui-icons/src/iconsSVGs/16/EmojiSad.svg

<svg width="16" height="16" viewBox="0 0 16 16" fill="none" xmlns="http://www.w3.org/2000/svg">
<path d="M5.99854 7.07429C6.52198 7.07429 6.9463 6.64997 6.9463 6.12653C6.9463 5.6031 6.52198 5.17877 5.99854 5.17877C5.47511 5.17877 5.05078 5.6031 5.05078 6.12653C5.05078 6.64997 5.47511 7.07429 5.99854 7.07429Z" fill="black"/>
<path d="M10.9492 6.12653C10.9492 6.64997 10.5249 7.07429 10.0015 7.07429C9.47804 7.07429 9.05371 6.64997 9.05371 6.12653C9.05371 5.6031 9.47804 5.17877 10.0015 5.17877C10.5249 5.17877 10.9492 5.6031 10.9492 6.12653Z" fill="black"/>
<path d="M6.03791 11.0805C5.77639 11.3264 5.36502 11.3137 5.1191 11.0522C4.87318 10.7907 4.88583 10.3793 5.14735 10.1334C5.36754 9.92636 6.3843 9.05304 7.98837 9.02407C8.04041 9.02313 8.09407 9.02305 8.14759 9.02408C9.68337 9.05357 10.6597 9.94062 10.8661 10.1449C11.1213 10.3974 11.1234 10.809 10.8709 11.0642C10.6184 11.3193 10.2069 11.3215 9.9517 11.069C9.83711 10.9556 9.16475 10.3439 8.12264 10.3238C8.0867 10.3232 8.04925 10.3232 8.01184 10.3239C6.87534 10.3444 6.15558 10.9698 6.03791 11.0805Z" fill="black"/>
<path fill-rule="evenodd" clip-rule="evenodd" d="M15 8C15 11.866 11.866 15 8 15C4.13401 15 1 11.866 1 8C1 4.13401 4.13401 1 8 1C11.866 1 15 4.13401 15 8ZM13.7 8C13.7 11.148 11.148 13.7 8 13.7C4.85198 13.7 2.3 11.148 2.3 8C2.3 4.85198 4.85198 2.3 8 2.3C11.148 2.3 13.7 4.85198 13.7 8Z" fill="black"/>
</svg>

<svg xmlns="http://www.w3.org/2000/svg" width="16" height="16" fill="none" viewBox="0 0 16 16"><path fill="#000" fill-rule="evenodd" d="M15 8c0 3.866-3.134 7-7 7s-7-3.134-7-7 3.134-7 7-7 7 3.134 7 7m-1.3 0c0 3.148-2.552 5.7-5.7 5.7S2.3 11.148 2.3 8 4.852 2.3 8 2.3s5.7 2.552 5.7 5.7m-7.7015-.9257a.9478.9478 0 1 0 0-1.8955.9478.9478 0 0 0 0 1.8955m4.9507-.9478a.9478.9478 0 1 1-1.8954 0 .9478.9478 0 0 1 1.8954 0m-4.9113 4.954a.65.65 0 0 1-.8906-.9471c.2202-.207 1.237-1.0804 2.841-1.1093a4 4 0 0 1 .1593 0c1.5358.0295 2.5121.9165 2.7185 1.1208a.65.65 0 0 1-.9144.9241c-.1146-.1134-.787-.7251-1.829-.7452a3 3 0 0 0-.1109.0001c-1.1365.0205-1.8562.6459-1.9739.7566"/></svg>
